X:46
T:Bush on the Hill
Z: id:dc-jig-169
M:6/8
L:1/8
K:G Major
G,3 DB,D|G3 Bdg|edc BcA|BGE EDB,|!
G,A,G, DB,D|G3 Bdg|edc BcA|BGF G3:|!
GBd g3|ece dBG|c3 dBG|AFA BGF|!
GBd g3|ece dBG|c3 dBG|AFD G3:|!

